src/Assests/SVG/airport.svg

<svg width="311" height="198" viewBox="0 0 311 198" fill="none" xmlns="http://www.w3.org/2000/svg"><path fill-rule="evenodd" clip-rule="evenodd" d="M175.333 56.1667h15.334v6.1666H166v30.8334L178.333 105.5v83.167H163V198h148v-8.333h-9.167V127h-80.166v-21.5L234 93.1667V62.3333h-24.667v-6.1666h15.334V50h-49.334v6.1667ZM255.5 167.167h12.333v24.666H255.5v-24.666Zm-24.667 0h18.5v24.666h-18.5v-24.666Zm-18.5 0h12.334v24.666h-12.334v-24.666ZM187.667 105.5h24.666v30.833H292.5v53.334h-15.333v-31.834H203v30.834h-15.333V105.5Zm24.666-30.8333h12.334v12.1668l-6.167 6.3332h-6.167v-18.5Zm-37 0h12.334v18.5h-6.025L175.333 87V74.6667Zm18.5 0h12.334v18.5h-12.334v-18.5Z" fill="#BFFCF9"/><path stroke="#BFFCF9" stroke-width="4" d="M163 196H0"/><g clip-path="url(#a)"><path fill-rule="evenodd" clip-rule="evenodd" d="m201.432 19.854 10.806 3.322 4.894-2.49c2.65-1.19 6.842-.21 6.868 2.9.018 1.712-1.19 3.854-2.99 4.85l-4.81 2.45-3.672 10.722L207.542 44l-.526-8.438-3.414 1.738-1.348 3.618-4.38 2.044-.93-7.132-5.234-5.108 4.252-2.186 3.678 1.054 3.418-1.74-6.578-5.46 4.952-2.536Zm-7.224 21.278C184.488 44.004 176.786 34.53 176 30c2.996 3.3 8.236 5.802 14.376 4.168l2.222 2.17c-2.068.848-5.198 1.362-7.864.814 2.77 1.744 5.376 2.266 9.124 1.306l.35 2.674Zm26.354-17.33c-.28-.12-1.312-.388-1.922-.04l-6.136 3.118-10.188-3.534 6.856 5.23-8.926 4.55-3.232-1.408 2.93 2.642.17 3.678 1.132-3.334 8.578-4.248.442 7.84 3.124-9.73s5.426-2.848 6.208-3.274c.744-.408.964-1.49.964-1.49Zm-44.536 1.22L176 24c0-11.044 8.954-20 20-20 8.924 0 16.486 5.848 19.058 13.922 0 0-2.156 1.122-3.152 1.63-.11-.226-9.474-2.948-9.474-2.948-.744-.224-1.5-.274-2.744.322l-.542-.808c-.192-.126-1.688-1.176-1.28-.49l1.314 1.308c-.064.044-.344-.478-.344-.096.054-.148.052.304-.014.53l-.146.074-.016-.028c-.09-.148.148-.23.01-.446 0-.142-.376-.28-.452-.376-.21-.258-.762-.828-1.062-.966-.084-.038-1.274.146-1.374.184l-.298.518c-.248.092-.478.21-.698.358l-.262.586c-.116.102-1.276.486-1.282.5.05-.126-.812-.286-.756-.536.064-.274.356-1.132.28-1.446-.08-.33 1.79.474 1.914-.394.046-.372.074-.81-.524-.874.112.012 1.158-.41 1.33-.6.244-.28.802-.738 1.208-.738.474 0 .37-.688.588-1.026.218.088-.116.626.146.846-.018-.172.74.094.814.054.176-.092 1.142-.038.992-.494-.168-.46.084-.324.302-.42-.04.014.564-1.032.67-.688-.072-.354-.702.122-.922.106-.506-.042-.294-.868-.1-1.11.148-.192-.406-.426-.412-.06-.01.548-.52 1.044-.404 1.774.184 1.1-1.224-.264-1.346-.19-.466.282-.848-.356-.606-.742.246-.39.84-.37 1.086-.79.172-.298.374-.642.642-.868.892-.748 1.138-.148 2.024-.068.872.08.294.208.176.54-.116.318.476.43.682.166.114-.154.382-.538.496-.824.148-.37 1.502-.328.556-.894-.622-.37-3.34-1.12-5.16-1.12-.392 0-.668.438-.968.688-.594.492-2.11 1.456-2.958 1.164-.864-.3-2.716 1.098-3.014 1.11-.11.004.004-1.06.596-1.136-.258.036 2.078-1.18 2.016-1.434-.078-.3-4.666 1.37-4.462 1.708.096.15.5.15-.026.49-.3.178-.622 1.332-.904 1.332-.842.368-.894-.724-1.83.682l-1.49.602c-2.212 2.35-3.744 5.328-4.3 8.638-.022.132.558.374.632.466.186.224.186 1.188.278 1.502.232.796.798 1.24 1.234 1.964.256.432.684 1.524.548 1.978.182-.296 1.786 1.358 2.078 1.704.606.714 1.092 1.56.434 2.302-5.454-.748-8.756-6.116-8.756-6.116Zm14.53 2.468c-1.364-.904-1.75-2.92-1.264-4.46.062-.318-.19-.904-.08-1.148.262-.588.802-1.246 1.27-1.692.264-.25.602-.186.912-.38.478-.3.484-.92.954-1.3.666-.544 1.576-.532 2.446-.648.464-.062 2.226-.444 2.506-.1l.082.346-2.45 1.254c-1.816.996-2.286 3.032-1.5 4.534.336.636 1.308 1.468 1.308 1.468-.168.068-4.184 2.126-4.184 2.126Zm3.764-14.992.18-.052-.084.228c.142.258.036.414.014.554l-.25.152c-.088.112.43.128.436.142.018.056-.626.148-.506.286.158.226 1.374-.326 1.18-.294.374-.188.05-.208-.162-.318-.072-.356-.13-.91-.354-1.132l.146-.168c-.344-.5-.6.602-.6.602Zm-.858.91c-.144.058-.284-.034-.146-.174l.146-.176-.014-.08.116-.146.12-.03.248-.174c.072.016.244.158.184.246l-.132.164c-.03.278-.31.276-.518.368l-.004.002.004-.002-.004.002Z" fill="#BFFCF9"/></g><defs><clipPath id="a"><path fill="#fff" d="M176 0h48v48h-48z"/></clipPath></defs></svg>

<svg width="311" height="198" viewBox="0 0 311 198" fill="none" xmlns="http://www.w3.org/2000/svg">
<path fill-rule="evenodd" clip-rule="evenodd" d="M175.333 56.1667H190.667V62.3333H166V93.1667L178.333 105.5V188.667H163V198H311V189.667H301.833V127H221.667V105.5L234 93.1667V62.3333H209.333V56.1667H224.667V50H175.333V56.1667ZM255.5 167.167H267.833V191.833H255.5V167.167ZM230.833 167.167H249.333V191.833H230.833V167.167ZM212.333 167.167H224.667V191.833H212.333V167.167ZM187.667 105.5H212.333V136.333H292.5V189.667H277.167V157.833H203V188.667H187.667V105.5ZM212.333 74.6667H224.667V86.8335L218.5 93.1667H212.333V74.6667ZM175.333 74.6667H187.667V93.1667H181.642L175.333 87V74.6667ZM193.833 74.6667H206.167V93.1667H193.833V74.6667Z" fill="#BFFCF9"/>
<line y1="-2" x2="163" y2="-2" transform="matrix(-1 0 0 1 163 198)" stroke="#BFFCF9" stroke-width="4"/>
<g clip-path="url(#clip0_86_395)">
<path fill-rule="evenodd" clip-rule="evenodd" d="M201.432 19.854L212.238 23.176L217.132 20.686C219.782 19.496 223.974 20.476 224 23.586C224.018 25.298 222.81 27.44 221.01 28.436L216.2 30.886L212.528 41.608L207.542 44L207.016 35.562L203.602 37.3L202.254 40.918L197.874 42.962L196.944 35.83L191.71 30.722L195.962 28.536L199.64 29.59L203.058 27.85L196.48 22.39L201.432 19.854ZM194.208 41.132C184.488 44.004 176.786 34.53 176 30C178.996 33.3 184.236 35.802 190.376 34.168L192.598 36.338C190.53 37.186 187.4 37.7 184.734 37.152C187.504 38.896 190.11 39.418 193.858 38.458L194.208 41.132ZM220.562 23.802C220.282 23.682 219.25 23.414 218.64 23.762L212.504 26.88L202.316 23.346L209.172 28.576L200.246 33.126L197.014 31.718L199.944 34.36L200.114 38.038L201.246 34.704L209.824 30.456L210.266 38.296L213.39 28.566C213.39 28.566 218.816 25.718 219.598 25.292C220.342 24.884 220.562 23.802 220.562 23.802ZM176.026 25.022L176 24C176 12.956 184.954 4 196 4C204.924 4 212.486 9.848 215.058 17.922C215.058 17.922 212.902 19.044 211.906 19.552C211.796 19.326 202.432 16.604 202.432 16.604C201.688 16.38 200.932 16.33 199.688 16.926L199.146 16.118C198.954 15.992 197.458 14.942 197.866 15.628L199.18 16.936C199.116 16.98 198.836 16.458 198.836 16.84C198.89 16.692 198.888 17.144 198.822 17.37L198.676 17.444L198.66 17.416C198.57 17.268 198.808 17.186 198.67 16.97C198.67 16.828 198.294 16.69 198.218 16.594C198.008 16.336 197.456 15.766 197.156 15.628C197.072 15.59 195.882 15.774 195.782 15.812L195.484 16.33C195.236 16.422 195.006 16.54 194.786 16.688L194.524 17.274C194.408 17.376 193.248 17.76 193.242 17.774C193.292 17.648 192.43 17.488 192.486 17.238C192.55 16.964 192.842 16.106 192.766 15.792C192.686 15.462 194.556 16.266 194.68 15.398C194.726 15.026 194.754 14.588 194.156 14.524C194.268 14.536 195.314 14.114 195.486 13.924C195.73 13.644 196.288 13.186 196.694 13.186C197.168 13.186 197.064 12.498 197.282 12.16C197.5 12.248 197.166 12.786 197.428 13.006C197.41 12.834 198.168 13.1 198.242 13.06C198.418 12.968 199.384 13.022 199.234 12.566C199.066 12.106 199.318 12.242 199.536 12.146C199.496 12.16 200.1 11.114 200.206 11.458C200.134 11.104 199.504 11.58 199.284 11.564C198.778 11.522 198.99 10.696 199.184 10.454C199.332 10.262 198.778 10.028 198.772 10.394C198.762 10.942 198.252 11.438 198.368 12.168C198.552 13.268 197.144 11.904 197.022 11.978C196.556 12.26 196.174 11.622 196.416 11.236C196.662 10.846 197.256 10.866 197.502 10.446C197.674 10.148 197.876 9.804 198.144 9.578C199.036 8.83 199.282 9.43 200.168 9.51C201.04 9.59 200.462 9.718 200.344 10.05C200.228 10.368 200.82 10.48 201.026 10.216C201.14 10.062 201.408 9.678 201.522 9.392C201.67 9.022 203.024 9.064 202.078 8.498C201.456 8.128 198.738 7.378 196.918 7.378C196.526 7.378 196.25 7.816 195.95 8.066C195.356 8.558 193.84 9.522 192.992 9.23C192.128 8.93 190.276 10.328 189.978 10.34C189.868 10.344 189.982 9.28 190.574 9.204C190.316 9.24 192.652 8.024 192.59 7.77C192.512 7.47 187.924 9.14 188.128 9.478C188.224 9.628 188.628 9.628 188.102 9.968C187.802 10.146 187.48 11.3 187.198 11.3C186.356 11.668 186.304 10.576 185.368 11.982L183.878 12.584C181.666 14.934 180.134 17.912 179.578 21.222C179.556 21.354 180.136 21.596 180.21 21.688C180.396 21.912 180.396 22.876 180.488 23.19C180.72 23.986 181.286 24.43 181.722 25.154C181.978 25.586 182.406 26.678 182.27 27.132C182.452 26.836 184.056 28.49 184.348 28.836C184.954 29.55 185.44 30.396 184.782 31.138C179.328 30.39 176.026 25.022 176.026 25.022ZM190.556 27.49C189.192 26.586 188.806 24.57 189.292 23.03C189.354 22.712 189.102 22.126 189.212 21.882C189.474 21.294 190.014 20.636 190.482 20.19C190.746 19.94 191.084 20.004 191.394 19.81C191.872 19.51 191.878 18.89 192.348 18.51C193.014 17.966 193.924 17.978 194.794 17.862C195.258 17.8 197.02 17.418 197.3 17.762L197.382 18.108L194.932 19.362C193.116 20.358 192.646 22.394 193.432 23.896C193.768 24.532 194.74 25.364 194.74 25.364C194.572 25.432 190.556 27.49 190.556 27.49ZM194.32 12.498L194.5 12.446L194.416 12.674C194.558 12.932 194.452 13.088 194.43 13.228L194.18 13.38C194.092 13.492 194.61 13.508 194.616 13.522C194.634 13.578 193.99 13.67 194.11 13.808C194.268 14.034 195.484 13.482 195.29 13.514C195.664 13.326 195.34 13.306 195.128 13.196C195.056 12.84 194.998 12.286 194.774 12.064L194.92 11.896C194.576 11.396 194.32 12.498 194.32 12.498ZM193.462 13.408C193.318 13.466 193.178 13.374 193.316 13.234L193.462 13.058L193.448 12.978L193.564 12.832L193.684 12.802L193.932 12.628C194.004 12.644 194.176 12.786 194.116 12.874L193.984 13.038C193.954 13.316 193.674 13.314 193.466 13.406L193.462 13.408L193.466 13.406L193.462 13.408Z" fill="#BFFCF9"/>
</g>
<defs>
<clipPath id="clip0_86_395">
<rect width="48" height="48" fill="white" transform="translate(176)"/>
</clipPath>
</defs>
</svg>
